X: 23178
T: Le Reel De L'aveugle
R: reel
M: 4/4
K: Dmajor
A2 zG|:FD (3DDD EDB,G,|A,DFA BAFD|CEGB cBAG|FAde fdAG|
FD (3DDD EDB,G,|A,DFA BAFD|CEGB cBAG|1 FdAF D2 AG:|2 FdAF D2de||
|:fdAc dAFA|BAGB edcB|Acde fdgf|ecdf ecde|
fdAc dAFA|BAGB edcB|Afed cABc|1 d2 dc d2 de:|2 dedc d2 AG||

